svg/l/DJ.svg

<svg width="32" height="24" viewBox="0 0 32 24" fill="none" xmlns="http://www.w3.org/2000/svg">
<mask id="mask0" mask-type="alpha" maskUnits="userSpaceOnUse" x="0" y="0" width="32" height="24">
<rect width="32" height="24" fill="white"/>
</mask>
<g mask="url(#mask0)">
<path fill-rule="evenodd" clip-rule="evenodd" d="M0 0V24H32V0H0Z" fill="#73BE4A"/>
<mask id="mask1" mask-type="alpha" maskUnits="userSpaceOnUse" x="0" y="0" width="32" height="24">
<path fill-rule="evenodd" clip-rule="evenodd" d="M0 0V24H32V0H0Z" fill="white"/>
</mask>
<g mask="url(#mask1)">
<path fill-rule="evenodd" clip-rule="evenodd" d="M0 -2V12H32V-2H0Z" fill="#6699FF"/>
</g>
<path fill-rule="evenodd" clip-rule="evenodd" d="M0 0V24L18 12L0 0Z" fill="white"/>
<mask id="mask2" mask-type="alpha" maskUnits="userSpaceOnUse" x="0" y="0" width="18" height="24">
<path fill-rule="evenodd" clip-rule="evenodd" d="M0 0V24L18 12L0 0Z" fill="white"/>
</mask>
<g mask="url(#mask2)">
<path fill-rule="evenodd" clip-rule="evenodd" d="M7.00179 14.0706L5.13112 15.2L5.55781 12.9962L4 11.3469L6.10936 11.2577L7.00179 9.19995L7.89423 11.2577H10L8.44578 12.9962L8.91369 15.2L7.00179 14.0706Z" fill="#E31D1C"/>
</g>
</g>
</svg>

<svg width="32" height="24" fill="none" xmlns="http://www.w3.org/2000/svg">
  <mask id="a" maskUnits="userSpaceOnUse" x="0" y="0" width="32" height="24">
    <path fill="#fff" d="M0 0h32v24H0z"/>
  </mask>
  <g mask="url(#a)">
    <path fill-rule="evenodd" clip-rule="evenodd" d="M0 0v24h32V0H0z" fill="#73BE4A"/>
    <mask id="b" maskUnits="userSpaceOnUse" x="0" y="0" width="32" height="24">
      <path fill-rule="evenodd" clip-rule="evenodd" d="M0 0v24h32V0H0z" fill="#fff"/>
    </mask>
    <g mask="url(#b)">
      <path fill-rule="evenodd" clip-rule="evenodd" d="M0-2v14h32V-2H0z" fill="#69F"/>
    </g>
    <path fill-rule="evenodd" clip-rule="evenodd" d="M0 0v24l18-12L0 0z" fill="#fff"/>
    <mask id="c" maskUnits="userSpaceOnUse" x="0" y="0" width="18" height="24">
      <path fill-rule="evenodd" clip-rule="evenodd" d="M0 0v24l18-12L0 0z" fill="#fff"/>
    </mask>
    <g mask="url(#c)">
      <path fill-rule="evenodd" clip-rule="evenodd" d="M7.002 14.07l-1.87 1.13.426-2.204L4 11.347l2.11-.09.892-2.057.892 2.058H10l-1.554 1.738.468 2.204-1.912-1.13z" fill="#E31D1C"/>
    </g>
  </g>
</svg>
